!!!COM: John Henry Hopkins
!!!OTL: Gather round the Christmas Tree
!!!system-decoration: ([([(s1,s2)]s3,s4)]s5)
**kern	**kern	**kern	**kern	**kern	**kern	**kern	**kern	**kern	**kern	**kern	**kern	**kern	**kern	**kern	**dynam	**kern	**kern	**kern	**kern	**kern	**kern	**kern	**kern	**kern	**kern	**dynam
*part5	*part5	*part5	*part5	*part5	*part4	*part4	*part4	*part4	*part4	*part3	*part3	*part3	*part3	*part3	*part3	*part2	*part2	*part2	*part2	*part2	*part1	*part1	*part1	*part1	*part1	*part1
*staff25	*staff24	*staff23	*staff22	*staff21	*staff20	*staff19	*staff18	*staff17	*staff16	*staff15	*staff14	*staff13	*staff12	*staff11	*	*staff10	*staff9	*staff8	*staff7	*staff6	*staff5	*staff4	*staff3	*staff2	*staff1	*
*I'Timp.	*	*	*	*	*I'B. Tbn.	*	*	*	*	*I'Tbn.	*	*	*	*	*	*I'C Tpt. 2	*	*	*	*	*I'C Tpt. 1	*	*	*	*	*
*I"Timpani	*	*	*	*	*I"Bass Trombone	*	*	*	*	*I"Trombone	*	*	*	*	*	*I"Trumpet in C 2	*	*	*	*	*I"Trumpet in C 1	*	*	*	*	*
*clefF4	*clefF4	*clefF4	*	*clefG2	*clefG2	*
*k[f#]	*k[f#]	*k[f#]	*	*k[f#]	*k[f#]	*
*M2/4	*M2/4	*M2/4	*	*M2/4	*M2/4	*
!	!	!	!	!	!LO:TX:a:iB:t=Allegro	!
2r	2r	2r	.	2r	16r	.
.	.	.	.	.	16dL	<
.	.	.	.	.	16e	.
.	.	.	.	.	16f#yJ	.
.	.	.	.	.	16gL	.
.	.	.	.	.	16a	.
.	.	.	.	.	16b	.
.	.	.	.	.	16ccJ	[
=2	=2	=2	=2	=2	=2	=2
2r	4G	2r	.	8b'<L	8dd'>L	.
.	.	.	.	8d'<J	16b	.
.	.	.	.	.	16aJ	.
.	4E	.	.	8e'<L	8g'<L	.
.	.	.	.	8g'<J	8b'<J	.
=3	=3	=3	=3	=3	=3	=3
2r	8D'<L	16r	.	8f#y'<L	8a'<L	.
.	.	16DL	<	.	.	.
.	8C'<J	16E	.	8d'<J	8d'<J	.
.	.	16F#yJ	.	.	.	.
.	8BB'<L	16GL	.	8d'<	4g	.
.	.	16A	.	.	.	.
.	8E'<J	16B	.	8r	.	.
.	.	16cJ	[	.	.	.
=4	=4	=4	=4	=4	=4	=4
2r	8F#y'>L	8dL	.	2r	2r	.
.	8G'>J	16B	.	.	.	.
.	.	16AJ	.	.	.	.
.	8E'>L	8GL	.	.	.	.
.	8D'>J	8BJ	.	.	.	.
=5	=5	=5	=5	=5	=5	=5
2r	8C'<L	8A'>L	.	4r	16r	.
.	.	.	.	.	16dL	<
.	8D'<J	8D'>J	.	.	16e	.
.	.	.	.	.	16f#yJ	.
.	4GG	4G	.	16r	16gL	.
.	.	.	.	16dL	16a	.
.	.	.	.	16g	16b	.
.	.	.	.	16aJ	16ccJ	[
!!LO:LB
=6	=6	=6	=6	=6	=6	=6
8GG	8G	8d	.	8g'<L	8b'>L	.
8r	8r	8r	.	8g'<J	8b'>J	.
4r	4r	4r	.	8g'<L	8b'<L	.
.	.	.	.	16f#y	16a	.
.	.	.	.	16gJ	16bJ	.
=7	=7	=7	=7	=7	=7	=7
8D	8F#y	8d	.	8a'<L	8cc'>L	.
8r	8r	8r	.	8a'<J	8cc'>J	.
4r	4r	4r	.	8a'<L	8cc'>L	.
.	.	.	.	16g	16b	.
.	.	.	.	16aJ	16ccJ	.
=8	=8	=8	=8	=8	=8	=8
2r	8GL	8gL	.	8bL	8ddL	.
.	8F#yJ	8aJ	.	8ccJ	8ddJ	.
.	8GL	8gL	.	8bL	8ddL	.
.	8EJ	8gJ	.	8bJ	8ddJ	.
=9	=9	=9	=9	=9	=9	=9
!	!	!	!	!	!LO:TX:i:t=rit.	!
8r	4AA	4e	.	8aL	8ddL	.
8AA	.	.	.	8gJ	8cc#J	.
8DT;	8D;	8d;	.	8f#y;	8ddL;	.
8r	8r	8r	.	8r	16b	.
.	.	.	.	.	16ccnJ	.
=10	=10	=10	=10	=10	=10	=10
8D	8D	8dL	.	8f#yL	8ddL	.
8r	8r	8eJ	.	8gJ	8aJ	.
8r	8r	8dL	.	8f#yL	8aL	.
8D	8D	8cJ	.	8eJ	8aJ	.
=11	=11	=11	=11	=11	=11	=11
8GG	8GG	8.gL	.	8.dL	8.bL	.
8r	8r	.	.	.	.	.
.	.	16f#yJ	.	16dJ	16aJ	.
4r	8r	8eL	.	8dL	8gL	.
.	8G	8dJ	.	8dJ	8gJ	.
=12	=12	=12	=12	=12	=12	=12
2r	8GL	8BL	.	8eL	8eeL	.
.	8EJ	8GJ	.	8BJ	8eJ	.
.	8CL	8AL	.	8eL	8f#yL	.
.	8DJ	8BJ	.	8eJ	8gJ	.
=13	=13	=13	=13	=13	=13	=13
2r	8.DL	8.cL	.	8.aL	8.aL	.
.	16CJ	16eJ	.	16gJ	16aJ	.
.	8DL	8dL	.	8f#yL	8aL	.
.	8EJ	8cJ	.	8eJ	8bJ	.
=14	=14	=14	=14	=14	=14	=14
2r	8F#yL	4d	.	8dL	4cc	.
.	8GJ	.	.	8eJ	.	.
.	8AL	8dL	.	8f#yL	8aL	.
.	8GJ	8dJ	.	8gJ	8bJ	.
=15	=15	=15	=15	=15	=15	=15
4r	8F#yL	4d	.	8aL	4cc	.
.	8GJ	.	.	[8gJ	.	.
8r	4D	4r	.	16gL]	8aL	.
.	.	.	.	16f#y	.	.
8D	.	.	.	16g	16b	.
.	.	.	.	16aJ	16ccJ	.
=16	=16	=16	=16	=16	=16	=16
8GG	8GG	8dL	.	8bL	8ddL	.
8r	8r	8cJ	.	8dJ	8gJ	.
8r	8r	8cL	.	8eL	8ccL	.
8GG	8GG	8dJ	.	[8gJ	8bJ	.
=17	=17	=17	=17	=17	=17	=17
4D	4D	4c	.	8gL]	4a	.
.	.	.	.	8f#yJ	.	.
8GG	8GG	8B	.	8d	8g	.
8r	8r	8r	.	8r	8r	.
=18	=18	=18	=18	=18	=18	=18
2r	2r	2r	.	16r	16r	.
.	.	.	.	16dL	16dL	.
.	.	.	.	16e	16e	.
.	.	.	.	16f#yJ	16f#yJ	.
.	.	.	.	16gL	16gL	.
.	.	.	.	16f#y	16a	.
.	.	.	.	16g	16b	.
.	.	.	.	16aJ	16ccJ	.
=19	=19	=19	=19	=19	=19	=19
8GG	8GL	8BL	.	8bL	8dd'>L	.
8r	16G	16B	.	16g	16b	.
.	16AJ	16cJ	.	16f#yJ	16aJ	.
8r	8BL	8dL	.	8gL	8g'<L	.
8GG	8GJ	8dJ	.	8gJ	8b'<J	.
!!LO:LB
=20	=20	=20	=20	=20	=20	=20
8r	8AL	8cL	.	8eL	8a'<L	.
8D	8F#yJ	8cJ	.	8AJ	8d'<J	.
4GG	4G	4B	.	4d	4g	.
=21	=21	=21	=21	=21	=21	=21
8GG	8GL	8BL	.	8bL	8dd'>L	.
8r	16G	16B	.	16g	16b	.
.	16AJ	16cJ	.	16f#yJ	16aJ	.
8r	8BL	8dL	.	8gL	8g'<L	.
8GG	8GJ	8dJ	.	8gJ	8b'<J	.
=22	=22	=22	=22	=22	=22	=22
8r	8AL	8cL	.	8eL	8a'<L	.
8D	8F#yJ	8cJ	.	8AJ	8d'<J	.
4GG	4G	4B	.	8dL	8gL	.
.	.	.	.	16g	16b	.
.	.	.	.	16bJ	16ddJ	.
=23	=23	=23	=23	=23	=23	=23
8r	16GL	16BL	.	8dd	8gg	.
.	16A	16c	.	.	.	.
8D	16G	16B	.	8r	8r	.
.	16AJ	16cJ	.	.	.	.
8GG	8G'>L	8B'>L	.	8r	8r	.
8r	16F#y	16A	.	16aL	16ddL	.
.	16GJ	16BJ	.	16gJ	16ddJ	.
=24	=24	=24	=24	=24	=24	=24
8r	16AL	16cL	.	8dd	8gg	.
.	16B	16d	.	.	.	.
8D	16A	16c	.	8r	8r	.
.	16BJ	16dJ	.	.	.	.
8D	8A'>L	8c'>L	.	8r	8r	.
8r	16G	16B	.	16bL	16ddL	.
.	16AJ	16cJ	.	16ccJ	16ddJ	.
=25	=25	=25	=25	=25	=25	=25
!LO:TX:a:iB:t=A-D	!	!	!	!	!	!
4r	16BL	16dL	.	8ddL	8ggL	.
.	16c	16e	.	.	.	.
.	16B	16d	.	8ccJ	8eeJ	.
.	16cJ	16eJ	.	.	.	.
8r	16BL	16dL	.	8bL	8ddL	.
.	16c	16e	.	.	.	.
8D	8DJ	[8dJ	.	8aJ	8ccJ	.
=26	=26	=26	=26	=26	=26	=26
!	!	!	!	!	!LO:TX:i:t=rit.	!
4AA	4E	8dL]	.	4g	4a	.
.	.	8c#J	.	.	.	.
8DT;	8D;	8dL;	.	8f#y;	8a;	.
8r	8r	16B	.	8r	8r	.
.	.	16cnJ	.	.	.	.
=27	=27	=27	=27	=27	=27	=27
2r	8r	8dL	.	8r	2r	.
.	8A	8AJ	.	8f#y	.	.
.	8GL	8AL	.	8eL	.	.
.	8F#yJ	8AJ	.	8dJ	.	.
=28	=28	=28	=28	=28	=28	=28
2r	8.GL	8.BL	.	8.dL	2r	.
.	16F#yJ	16AJ	.	16f#yJ	.	.
.	8EL	8GL	.	8gL	.	.
.	8EJ	8GJ	.	8bJ	.	.
=29	=29	=29	=29	=29	=29	=29
2r	8GL	8eL	.	4cc	2r	.
.	8EJ	8EJ	.	.	.	.
.	8DL	8F#yL	.	4b	.	.
.	8EJ	8GJ	.	.	.	.
=30	=30	=30	=30	=30	=30	=30
2r	8.DL	8.AL	.	8.aL	16r	.
.	.	.	.	.	16cL	.
.	.	.	.	.	16d	.
.	16DJ	16AJ	.	16cJ	16eJ	.
.	8DL	8A	.	8d	16fnL	.
.	.	.	.	.	16g	.
.	16G	8r	.	8r	16a	.
.	16FnJ	.	.	.	16bJ	.
=31	=31	=31	=31	=31	=31	=31
2r	4E	4e	.	4g	4cc	.
.	8FnL	8cL	.	8aL	8aL	.
.	8DJ	8fnJ	.	8gJ	8bJ	.
=32	=32	=32	=32	=32	=32	=32
4r	4E	4e	.	4g	4cc	.
8r	8FnL	8cL	.	8fnL	8aL	.
8D	8DJ	8fnJ	.	8gJ	16b	.
.	.	.	.	.	16ccJ	.
!!LO:LB
=33	=33	=33	=33	=33	=33	=33
8GG	8GL	8dL	.	8bL	8ddL	.
8r	8BBJ	8eJ	.	8dJ	8gJ	.
8r	8CL	8eL	.	[4g	8ccL	.
8GG	8DJ	8dJ	.	.	8bJ	.
=34	=34	=34	=34	=34	=34	=34
4D	4D	8dL	.	8gL]	4a	.
.	.	8cJ	.	8f#yJ	.	.
8GG	8G	8B	.	8d	8g	.
8r	8r	8r	.	8r	8r	.
=35	=35	=35	=35	=35	=35	=35
2r	8.DL	8.cL	.	8.aL	8.aL	.
.	16CJ	16eJ	.	16gJ	16aJ	.
.	8DL	8dL	.	8f#yL	8aL	.
.	8EJ	8cJ	.	8eJ	8bJ	.
=36	=36	=36	=36	=36	=36	=36
2r	8F#yL	4d	.	8dL	4cc	.
.	8GJ	.	.	8eJ	.	.
.	8AL	8dL	.	8f#yL	8aL	.
.	8GJ	8dJ	.	8gJ	8bJ	.
=37	=37	=37	=37	=37	=37	=37
4r	8F#yL	4d	.	16ccL	8aL	.
.	.	.	.	16d	.	.
.	8GJ	.	.	16e	[8gJ	.
.	.	.	.	16f#yJ	.	.
8r	4D	8dL	.	16gL	16gL]	.
.	.	.	.	16a	16f#y	.
8D	.	8dJ	.	16b	16g	.
.	.	.	.	16ccJ	16aJ	.
=38	=38	=38	=38	=38	=38	=38
8GG	8GG	8dL	.	8ddL	16bL	.
.	.	.	.	.	16g	.
8r	8r	8cJ	.	8gJ	16a	.
.	.	.	.	.	16bJ	.
8r	8r	8cL	.	8aL	16ccL	.
.	.	.	.	.	16dd	.
8GG	8GG	8dJ	.	8ccJ	16ee	.
.	.	.	.	.	16ff#yJ	.
=39	=39	=39	=39	=39	=39	=39
4D	4D	4d	.	4cc	8ggL	.
.	.	.	.	.	8ff#yJ;	.
8GG;	8GG;	8d;	.	8b;	8gg	.
8r	8r	8r	.	8r	8r	.
==	==	==	==	==	==	==
*-	*-	*-	*-	*-	*-	*-
!!!RDF**kern: > = above
!!!RDF**kern: < = below
